images/3235528.svg

<?xml version="1.0" encoding="UTF-8"?>
<svg xmlns="http://www.w3.org/2000/svg" xmlns:xlink="http://www.w3.org/1999/xlink" width="300pt" height="300pt" viewBox="0 0 300 300" version="1.1">
<defs>
<g>
<symbol overflow="visible" id="glyph0-0">
<path style="stroke:none;" d="M 0.546875 1.9375 L 0.546875 -7.75 L 6.046875 -7.75 L 6.046875 1.9375 Z M 1.171875 1.328125 L 5.4375 1.328125 L 5.4375 -7.140625 L 1.171875 -7.140625 Z M 1.171875 1.328125 "/>
</symbol>
<symbol overflow="visible" id="glyph0-1">
<path style="stroke:none;" d="M 1.078125 -8.015625 L 2.546875 -8.015625 L 6.09375 -1.3125 L 6.09375 -8.015625 L 7.15625 -8.015625 L 7.15625 0 L 5.6875 0 L 2.125 -6.703125 L 2.125 0 L 1.078125 0 Z M 1.078125 -8.015625 "/>
</symbol>
<symbol overflow="visible" id="glyph0-2">
<path style="stroke:none;" d="M 1.078125 -8.015625 L 2.171875 -8.015625 L 2.171875 -4.734375 L 6.109375 -4.734375 L 6.109375 -8.015625 L 7.1875 -8.015625 L 7.1875 0 L 6.109375 0 L 6.109375 -3.8125 L 2.171875 -3.8125 L 2.171875 0 L 1.078125 0 Z M 1.078125 -8.015625 "/>
</symbol>
<symbol overflow="visible" id="glyph0-3">
<path style="stroke:none;" d="M 4.328125 -7.28125 C 3.546875 -7.28125 2.921875 -6.984375 2.453125 -6.390625 C 1.992188 -5.804688 1.765625 -5.007812 1.765625 -4 C 1.765625 -2.988281 1.992188 -2.1875 2.453125 -1.59375 C 2.921875 -1.007812 3.546875 -0.71875 4.328125 -0.71875 C 5.117188 -0.71875 5.742188 -1.007812 6.203125 -1.59375 C 6.660156 -2.1875 6.890625 -2.988281 6.890625 -4 C 6.890625 -5.007812 6.660156 -5.804688 6.203125 -6.390625 C 5.742188 -6.984375 5.117188 -7.28125 4.328125 -7.28125 Z M 4.328125 -8.171875 C 5.453125 -8.171875 6.351562 -7.789062 7.03125 -7.03125 C 7.707031 -6.28125 8.046875 -5.269531 8.046875 -4 C 8.046875 -2.738281 7.707031 -1.726562 7.03125 -0.96875 C 6.351562 -0.21875 5.453125 0.15625 4.328125 0.15625 C 3.203125 0.15625 2.300781 -0.21875 1.625 -0.96875 C 0.957031 -1.71875 0.625 -2.726562 0.625 -4 C 0.625 -5.269531 0.957031 -6.28125 1.625 -7.03125 C 2.300781 -7.789062 3.203125 -8.171875 4.328125 -8.171875 Z M 4.328125 -8.171875 "/>
</symbol>
</g>
</defs>
<g id="surface47581">
<rect x="0" y="0" width="300" height="300" style="fill:rgb(100%,100%,100%);fill-opacity:1;stroke:none;"/>
<path style="fill:none;stroke-width:1.2;stroke-linecap:butt;stroke-linejoin:miter;stroke:rgb(0%,0%,0%);stroke-opacity:1;stroke-miterlimit:10;" d="M 260.433594 204.523438 L 248.570312 178.992188 "/>
<path style="fill:none;stroke-width:1.2;stroke-linecap:butt;stroke-linejoin:miter;stroke:rgb(0%,0%,0%);stroke-opacity:1;stroke-miterlimit:10;" d="M 248.570312 178.992188 L 220.527344 176.496094 "/>
<path style="fill:none;stroke-width:1.2;stroke-linecap:butt;stroke-linejoin:miter;stroke:rgb(0%,0%,0%);stroke-opacity:1;stroke-miterlimit:10;" d="M 246.351562 172.144531 L 223.917969 170.148438 "/>
<path style="fill:none;stroke-width:1.2;stroke-linecap:butt;stroke-linejoin:miter;stroke:rgb(0%,0%,0%);stroke-opacity:1;stroke-miterlimit:10;" d="M 264.75 155.953125 L 248.570312 178.992188 "/>
<path style="fill:none;stroke-width:1.2;stroke-linecap:butt;stroke-linejoin:miter;stroke:rgb(0%,0%,0%);stroke-opacity:1;stroke-miterlimit:10;" d="M 220.527344 176.496094 L 208.664062 150.964844 "/>
<path style="fill:none;stroke-width:1.2;stroke-linecap:butt;stroke-linejoin:miter;stroke:rgb(0%,0%,0%);stroke-opacity:1;stroke-miterlimit:10;" d="M 208.664062 150.964844 L 224.84375 127.925781 "/>
<path style="fill:none;stroke-width:1.2;stroke-linecap:butt;stroke-linejoin:miter;stroke:rgb(0%,0%,0%);stroke-opacity:1;stroke-miterlimit:10;" d="M 215.703125 152.46875 L 228.648438 134.039062 "/>
<path style="fill:none;stroke-width:1.2;stroke-linecap:butt;stroke-linejoin:miter;stroke:rgb(0%,0%,0%);stroke-opacity:1;stroke-miterlimit:10;" d="M 208.664062 150.964844 L 180.621094 148.472656 "/>
<path style="fill:none;stroke-width:1.2;stroke-linecap:butt;stroke-linejoin:miter;stroke:rgb(0%,0%,0%);stroke-opacity:1;stroke-miterlimit:10;" d="M 224.84375 127.925781 L 252.886719 130.417969 "/>
<path style="fill:none;stroke-width:1.2;stroke-linecap:butt;stroke-linejoin:miter;stroke:rgb(0%,0%,0%);stroke-opacity:1;stroke-miterlimit:10;" d="M 252.886719 130.417969 L 264.75 155.953125 "/>
<path style="fill:none;stroke-width:1.2;stroke-linecap:butt;stroke-linejoin:miter;stroke:rgb(0%,0%,0%);stroke-opacity:1;stroke-miterlimit:10;" d="M 248.066406 135.761719 L 257.554688 156.1875 "/>
<path style="fill:none;stroke-width:1.2;stroke-linecap:butt;stroke-linejoin:miter;stroke:rgb(0%,0%,0%);stroke-opacity:1;stroke-miterlimit:10;" d="M 180.621094 148.472656 L 174.691406 135.707031 "/>
<path style="fill:none;stroke-width:1.2;stroke-linecap:butt;stroke-linejoin:miter;stroke:rgb(0%,0%,100%);stroke-opacity:1;stroke-miterlimit:10;" d="M 174.691406 135.707031 L 168.757812 122.941406 "/>
<path style="fill:none;stroke-width:1.2;stroke-linecap:butt;stroke-linejoin:miter;stroke:rgb(0%,0%,100%);stroke-opacity:1;stroke-miterlimit:10;" d="M 168.757812 122.941406 L 154.738281 121.695312 "/>
<path style="fill:none;stroke-width:1.2;stroke-linecap:butt;stroke-linejoin:miter;stroke:rgb(0%,0%,0%);stroke-opacity:1;stroke-miterlimit:10;" d="M 154.738281 121.695312 L 140.714844 120.449219 "/>
<path style=" stroke:none;fill-rule:nonzero;fill:rgb(100%,100%,100%);fill-opacity:1;" d="M 160.757812 116.441406 L 177.757812 116.441406 L 177.757812 129.441406 L 160.757812 129.441406 Z M 160.757812 116.441406 "/>
<g style="fill:rgb(0%,0%,100%);fill-opacity:1;">
  <use xlink:href="#glyph0-1" x="160.757812" y="126.342773"/>
  <use xlink:href="#glyph0-2" x="168.741211" y="126.342773"/>
</g>
<path style="fill:none;stroke-width:1.2;stroke-linecap:butt;stroke-linejoin:miter;stroke:rgb(0%,0%,0%);stroke-opacity:1;stroke-miterlimit:10;" d="M 140.714844 120.449219 L 134.785156 107.679688 "/>
<path style="fill:none;stroke-width:1.2;stroke-linecap:butt;stroke-linejoin:miter;stroke:rgb(0%,0%,100%);stroke-opacity:1;stroke-miterlimit:10;" d="M 134.785156 107.679688 L 128.851562 94.914062 "/>
<path style="fill:none;stroke-width:1.2;stroke-linecap:butt;stroke-linejoin:miter;stroke:rgb(0%,0%,0%);stroke-opacity:1;stroke-miterlimit:10;" d="M 133.523438 120.683594 L 128.777344 110.472656 "/>
<path style="fill:none;stroke-width:1.2;stroke-linecap:butt;stroke-linejoin:miter;stroke:rgb(0%,0%,100%);stroke-opacity:1;stroke-miterlimit:10;" d="M 128.777344 110.472656 L 124.03125 100.257812 "/>
<path style="fill:none;stroke-width:1.2;stroke-linecap:butt;stroke-linejoin:miter;stroke:rgb(0%,0%,0%);stroke-opacity:1;stroke-miterlimit:10;" d="M 124.535156 143.488281 L 140.714844 120.449219 "/>
<path style="fill:none;stroke-width:1.2;stroke-linecap:butt;stroke-linejoin:miter;stroke:rgb(0%,0%,100%);stroke-opacity:1;stroke-miterlimit:10;" d="M 128.851562 94.914062 L 114.832031 93.667969 "/>
<path style="fill:none;stroke-width:1.2;stroke-linecap:butt;stroke-linejoin:miter;stroke:rgb(0%,0%,0%);stroke-opacity:1;stroke-miterlimit:10;" d="M 114.832031 93.667969 L 100.808594 92.421875 "/>
<path style=" stroke:none;fill-rule:nonzero;fill:rgb(100%,100%,100%);fill-opacity:1;" d="M 124.851562 88.414062 L 132.851562 88.414062 L 132.851562 101.414062 L 124.851562 101.414062 Z M 124.851562 88.414062 "/>
<g style="fill:rgb(0%,0%,100%);fill-opacity:1;">
  <use xlink:href="#glyph0-1" x="124.851562" y="98.31543"/>
</g>
<path style="fill:none;stroke-width:1.2;stroke-linecap:butt;stroke-linejoin:miter;stroke:rgb(0%,0%,0%);stroke-opacity:1;stroke-miterlimit:10;" d="M 100.808594 92.421875 L 92.71875 103.941406 "/>
<path style="fill:none;stroke-width:1.2;stroke-linecap:butt;stroke-linejoin:miter;stroke:rgb(0%,0%,100%);stroke-opacity:1;stroke-miterlimit:10;" d="M 92.71875 103.941406 L 84.628906 115.460938 "/>
<path style="fill:none;stroke-width:1.2;stroke-linecap:butt;stroke-linejoin:miter;stroke:rgb(0%,0%,0%);stroke-opacity:1;stroke-miterlimit:10;" d="M 104.613281 98.535156 L 98.140625 107.75 "/>
<path style="fill:none;stroke-width:1.2;stroke-linecap:butt;stroke-linejoin:miter;stroke:rgb(0%,0%,100%);stroke-opacity:1;stroke-miterlimit:10;" d="M 98.140625 107.75 L 91.667969 116.964844 "/>
<path style="fill:none;stroke-width:1.2;stroke-linecap:butt;stroke-linejoin:miter;stroke:rgb(0%,0%,100%);stroke-opacity:1;stroke-miterlimit:10;" d="M 84.628906 115.460938 L 90.5625 128.226562 "/>
<path style="fill:none;stroke-width:1.2;stroke-linecap:butt;stroke-linejoin:miter;stroke:rgb(0%,0%,0%);stroke-opacity:1;stroke-miterlimit:10;" d="M 90.5625 128.226562 L 96.492188 140.992188 "/>
<path style=" stroke:none;fill-rule:nonzero;fill:rgb(100%,100%,100%);fill-opacity:1;" d="M 80.628906 108.960938 L 88.628906 108.960938 L 88.628906 121.960938 L 80.628906 121.960938 Z M 80.628906 108.960938 "/>
<g style="fill:rgb(0%,0%,100%);fill-opacity:1;">
  <use xlink:href="#glyph0-1" x="80.628906" y="118.862305"/>
</g>
<path style="fill:none;stroke-width:1.2;stroke-linecap:butt;stroke-linejoin:miter;stroke:rgb(0%,0%,0%);stroke-opacity:1;stroke-miterlimit:10;" d="M 96.492188 140.992188 L 124.535156 143.488281 "/>
<path style="fill:none;stroke-width:1.2;stroke-linecap:butt;stroke-linejoin:miter;stroke:rgb(0%,0%,0%);stroke-opacity:1;stroke-miterlimit:10;" d="M 99.882812 134.644531 L 122.316406 136.640625 "/>
<path style="fill:none;stroke-width:1.2;stroke-linecap:butt;stroke-linejoin:miter;stroke:rgb(0%,0%,0%);stroke-opacity:1;stroke-miterlimit:10;" d="M 96.492188 140.992188 L 80.3125 164.035156 "/>
<path style="fill:none;stroke-width:1.2;stroke-linecap:butt;stroke-linejoin:miter;stroke:rgb(0%,0%,0%);stroke-opacity:1;stroke-miterlimit:10;" d="M 80.3125 164.035156 L 89.441406 190.664062 "/>
<path style="fill:none;stroke-width:1.2;stroke-linecap:butt;stroke-linejoin:miter;stroke:rgb(0%,0%,0%);stroke-opacity:1;stroke-miterlimit:10;" d="M 74.957031 168.84375 L 82.261719 190.152344 "/>
<path style="fill:none;stroke-width:1.2;stroke-linecap:butt;stroke-linejoin:miter;stroke:rgb(0%,0%,0%);stroke-opacity:1;stroke-miterlimit:10;" d="M 52.160156 164.484375 L 80.3125 164.035156 "/>
<path style="fill:none;stroke-width:1.2;stroke-linecap:butt;stroke-linejoin:miter;stroke:rgb(0%,0%,0%);stroke-opacity:1;stroke-miterlimit:10;" d="M 89.441406 190.664062 L 78.1875 199.121094 "/>
<path style="fill:none;stroke-width:1.2;stroke-linecap:butt;stroke-linejoin:miter;stroke:rgb(100%,0%,0%);stroke-opacity:1;stroke-miterlimit:10;" d="M 78.1875 199.121094 L 66.933594 207.578125 "/>
<path style="fill:none;stroke-width:1.2;stroke-linecap:butt;stroke-linejoin:miter;stroke:rgb(0%,0%,0%);stroke-opacity:1;stroke-miterlimit:10;" d="M 89.441406 190.664062 L 116.351562 198.933594 "/>
<path style="fill:none;stroke-width:1.2;stroke-linecap:butt;stroke-linejoin:miter;stroke:rgb(100%,0%,0%);stroke-opacity:1;stroke-miterlimit:10;" d="M 66.933594 207.578125 L 55.414062 199.488281 "/>
<path style="fill:none;stroke-width:1.2;stroke-linecap:butt;stroke-linejoin:miter;stroke:rgb(0%,0%,100%);stroke-opacity:1;stroke-miterlimit:10;" d="M 55.414062 199.488281 L 43.894531 191.398438 "/>
<path style=" stroke:none;fill-rule:nonzero;fill:rgb(100%,100%,100%);fill-opacity:1;" d="M 62.933594 201.078125 L 71.933594 201.078125 L 71.933594 214.078125 L 62.933594 214.078125 Z M 62.933594 201.078125 "/>
<g style="fill:rgb(100%,0%,0%);fill-opacity:1;">
  <use xlink:href="#glyph0-3" x="62.933594" y="210.979492"/>
</g>
<path style="fill:none;stroke-width:1.2;stroke-linecap:butt;stroke-linejoin:miter;stroke:rgb(0%,0%,100%);stroke-opacity:1;stroke-miterlimit:10;" d="M 43.894531 191.398438 L 48.027344 177.941406 "/>
<path style="fill:none;stroke-width:1.2;stroke-linecap:butt;stroke-linejoin:miter;stroke:rgb(0%,0%,0%);stroke-opacity:1;stroke-miterlimit:10;" d="M 48.027344 177.941406 L 52.160156 164.484375 "/>
<path style="fill:none;stroke-width:1.2;stroke-linecap:butt;stroke-linejoin:miter;stroke:rgb(0%,0%,100%);stroke-opacity:1;stroke-miterlimit:10;" d="M 51.050781 190.652344 L 54.359375 179.886719 "/>
<path style="fill:none;stroke-width:1.2;stroke-linecap:butt;stroke-linejoin:miter;stroke:rgb(0%,0%,0%);stroke-opacity:1;stroke-miterlimit:10;" d="M 54.359375 179.886719 L 57.667969 169.121094 "/>
<path style=" stroke:none;fill-rule:nonzero;fill:rgb(100%,100%,100%);fill-opacity:1;" d="M 39.894531 184.898438 L 47.894531 184.898438 L 47.894531 197.898438 L 39.894531 197.898438 Z M 39.894531 184.898438 "/>
<g style="fill:rgb(0%,0%,100%);fill-opacity:1;">
  <use xlink:href="#glyph0-1" x="39.894531" y="194.799805"/>
</g>
<path style="fill:none;stroke-width:1.2;stroke-linecap:butt;stroke-linejoin:miter;stroke:rgb(0%,0%,0%);stroke-opacity:1;stroke-miterlimit:10;" d="M 52.160156 164.484375 L 35.25 141.976562 "/>
</g>
</svg>

<svg xmlns="http://www.w3.org/2000/svg" xmlns:xlink="http://www.w3.org/1999/xlink" width="300pt" height="300pt" viewBox="0 0 300 300"><defs><symbol overflow="visible"><path d="M.547 1.938V-7.75h5.5v9.688zm.625-.61h4.266v-8.47H1.171zm0 0"/></symbol><symbol overflow="visible" id="a"><path d="M1.078-8.016h1.47l3.546 6.704v-6.704h1.062V0H5.688L2.124-6.703V0H1.078zm0 0"/></symbol><symbol overflow="visible" id="b"><path d="M1.078-8.016h1.094v3.282H6.11v-3.282h1.077V0H6.11v-3.813H2.17V0H1.078zm0 0"/></symbol><symbol overflow="visible" id="c"><path d="M4.328-7.28c-.78 0-1.406.296-1.875.89-.46.585-.687 1.382-.687 2.39 0 1.012.226 1.813.687 2.406.47.586 1.094.875 1.875.875.79 0 1.414-.288 1.875-.874.457-.593.688-1.394.688-2.406 0-1.008-.23-1.805-.687-2.39-.46-.594-1.086-.89-1.875-.89zm0-.892c1.125 0 2.024.383 2.703 1.14C7.708-6.28 8.048-5.27 8.048-4c0 1.262-.34 2.273-1.016 3.03C6.353-.22 5.454.157 4.33.157S2.3-.22 1.625-.97c-.668-.75-1-1.757-1-3.03 0-1.27.332-2.28 1-3.03.676-.76 1.578-1.142 2.703-1.142zm0 0"/></symbol></defs><g><path fill="#fff" d="M0 0h300v300H0z"/><path d="M260.434 204.523l-11.864-25.53M248.57 178.992l-28.043-2.496M246.352 172.145l-22.434-1.997M264.75 155.953l-16.18 23.04M220.527 176.496l-11.863-25.53M208.664 150.965l16.18-23.04M215.703 152.47l12.945-18.43M208.664 150.965l-28.043-2.492M224.844 127.926l28.043 2.492M252.887 130.418l11.863 25.535M248.066 135.762l9.49 20.425M180.62 148.473l-5.93-12.766" stroke-width="1.2" stroke="#000" stroke-miterlimit="10" fill="none"/><path d="M174.69 135.707l-5.932-12.766M168.758 122.94l-14.02-1.245" stroke-width="1.2" stroke="#00f" stroke-miterlimit="10" fill="none"/><path d="M154.738 121.695l-14.023-1.246" stroke-width="1.2" stroke="#000" stroke-miterlimit="10" fill="none"/><path d="M160.758 116.44h17v13h-17zm0 0" fill="#fff"/><g fill="#00f"><use xlink:href="#a" x="160.758" y="126.343"/><use xlink:href="#b" x="168.741" y="126.343"/></g><path d="M140.715 120.45l-5.93-12.77" stroke-width="1.2" stroke="#000" stroke-miterlimit="10" fill="none"/><path d="M134.785 107.68l-5.933-12.766" stroke-width="1.2" stroke="#00f" stroke-miterlimit="10" fill="none"/><path d="M133.523 120.684l-4.746-10.21" stroke-width="1.2" stroke="#000" stroke-miterlimit="10" fill="none"/><path d="M128.777 110.473l-4.746-10.215" stroke-width="1.2" stroke="#00f" stroke-miterlimit="10" fill="none"/><path d="M124.535 143.488l16.18-23.04" stroke-width="1.2" stroke="#000" stroke-miterlimit="10" fill="none"/><path d="M128.852 94.914l-14.02-1.246" stroke-width="1.2" stroke="#00f" stroke-miterlimit="10" fill="none"/><path d="M114.832 93.668l-14.023-1.246" stroke-width="1.2" stroke="#000" stroke-miterlimit="10" fill="none"/><path d="M124.852 88.414h8v13h-8zm0 0" fill="#fff"/><use xlink:href="#a" x="124.852" y="98.315" fill="#00f"/><path d="M100.81 92.422l-8.09 11.52" stroke-width="1.2" stroke="#000" stroke-miterlimit="10" fill="none"/><path d="M92.72 103.94l-8.09 11.52" stroke-width="1.2" stroke="#00f" stroke-miterlimit="10" fill="none"/><path d="M104.613 98.535l-6.472 9.215" stroke-width="1.2" stroke="#000" stroke-miterlimit="10" fill="none"/><path d="M98.14 107.75l-6.472 9.215M84.63 115.46l5.933 12.767" stroke-width="1.2" stroke="#00f" stroke-miterlimit="10" fill="none"/><path d="M90.563 128.227l5.93 12.765" stroke-width="1.2" stroke="#000" stroke-miterlimit="10" fill="none"/><path d="M80.63 108.96h8v13h-8zm0 0" fill="#fff"/><use xlink:href="#a" x="80.629" y="118.862" fill="#00f"/><path d="M96.492 140.992l28.043 2.496M99.883 134.645l22.433 1.996M96.492 140.992l-16.18 23.043M80.313 164.035l9.128 26.63M74.957 168.844l7.305 21.308M52.16 164.484l28.153-.45M89.44 190.664L78.19 199.12" stroke-width="1.2" stroke="#000" stroke-miterlimit="10" fill="none"/><path d="M78.188 199.12l-11.254 8.458" stroke-width="1.2" stroke="#f00" stroke-miterlimit="10" fill="none"/><path d="M89.44 190.664l26.912 8.27" stroke-width="1.2" stroke="#000" stroke-miterlimit="10" fill="none"/><path d="M66.934 207.578l-11.52-8.09" stroke-width="1.2" stroke="#f00" stroke-miterlimit="10" fill="none"/><path d="M55.414 199.488l-11.52-8.09" stroke-width="1.2" stroke="#00f" stroke-miterlimit="10" fill="none"/><path d="M62.934 201.078h9v13h-9zm0 0" fill="#fff"/><use xlink:href="#c" x="62.934" y="210.979" fill="#f00"/><path d="M43.895 191.398l4.132-13.457" stroke-width="1.2" stroke="#00f" stroke-miterlimit="10" fill="none"/><path d="M48.027 177.94l4.133-13.456" stroke-width="1.2" stroke="#000" stroke-miterlimit="10" fill="none"/><path d="M51.05 190.652l3.31-10.765" stroke-width="1.2" stroke="#00f" stroke-miterlimit="10" fill="none"/><path d="M54.36 179.887l3.308-10.766" stroke-width="1.2" stroke="#000" stroke-miterlimit="10" fill="none"/><path d="M39.895 184.898h8v13h-8zm0 0" fill="#fff"/><use xlink:href="#a" x="39.895" y="194.8" fill="#00f"/><path d="M52.16 164.484l-16.91-22.507" stroke-width="1.2" stroke="#000" stroke-miterlimit="10" fill="none"/></g></svg>
